X:59
T: Dahong gongji chuang tai wo
N: C0076A
O: China,Shanxi, Hequ
S: I, 297]
N: Doppelt aufgenommen. Neues Volkslied. Sehr typische Tonart  fuer
N: diese Gegend. ZWEIMAL GESUNGEN. HIER LEICHT VERZIERT.
R: Shange, Shanqu. Geming lishi minge]
M: 2/4
L: 1/16
K: F
d2A2d4- | d8 | A2g2c2AG | F2D2G2A2 | D8 |
d2A2d4- | d8 | A2g2c2AG | F2D2G2A2 | G8

@@@ Tune index: 6060
